src/Icon/svgs/link.svg

<svg width="24" height="24" viewBox="0 0 24 24" fill="none" xmlns="http://www.w3.org/2000/svg">
<path fill-rule="evenodd" clip-rule="evenodd" d="M14 8C14 7.44772 14.4477 7 15 7H18C20.7614 7 23 9.23858 23 12C23 14.7614 20.7614 17 18 17H15C14.4477 17 14 16.5523 14 16C14 15.4477 14.4477 15 15 15H18C19.6569 15 21 13.6569 21 12C21 10.3431 19.6569 9 18 9H15C14.4477 9 14 8.55228 14 8ZM10 16C10 16.5523 9.55228 17 9 17H6C3.23858 17 1 14.7614 1 12C1 9.23858 3.23858 7 6 7H9C9.55228 7 10 7.44772 10 8C10 8.55228 9.55228 9 9 9H6C4.34315 9 3 10.3431 3 12C3 13.6569 4.34315 15 6 15H9C9.55228 15 10 15.4477 10 16ZM7 12C7 11.4477 7.44771 11 8 11H16C16.5523 11 17 11.4477 17 12C17 12.5523 16.5523 13 16 13H8C7.44771 13 7 12.5523 7 12Z" fill="#1B1C1D"/>
</svg>

<svg xmlns="http://www.w3.org/2000/svg" width="24" height="24" fill="none"  xmlns:v="https://vecta.io/nano"><path fill-rule="evenodd" d="M14 8a1 1 0 0 1 1-1h3a5 5 0 1 1 0 10h-3a1 1 0 1 1 0-2h3a3 3 0 1 0 0-6h-3a1 1 0 0 1-1-1zm-4 8a1 1 0 0 1-1 1H6A5 5 0 1 1 6 7h3a1 1 0 1 1 0 2H6a3 3 0 1 0 0 6h3a1 1 0 0 1 1 1zm-3-4a1 1 0 0 1 1-1h8a1 1 0 1 1 0 2H8a1 1 0 0 1-1-1z" fill="#1b1c1d"/></svg>
